StripePaymentSheet/StripePaymentSheet/Resources/StripePaymentSheet.xcassets/PaymentMethods/icon-pm-p24.imageset/icon-pm-p24-mod.svg

<svg fill="none" height="16" viewBox="0 0 16 16" width="16" xmlns="http://www.w3.org/2000/svg" xmlns:xlink="http://www.w3.org/1999/xlink"><clipPath id="a"><path d="m0 0h16v16h-16z"/></clipPath><g clip-path="url(#a)"><path d="m0 8v-5c0-1.65685 1.34315-3 3-3h5 5c1.6569 0 3 1.34315 3 3v5 5c0 1.6569-1.3431 3-3 3h-5-5c-1.65685 0-3-1.3431-3-3z" fill="#e13134"/><path d="m6.08582 10.3996c0-.0145.01599-.1207.03635-.2341.15703-.90728.16284-.93927.20646-1.07158.09452-.29226.27336-.54672.49-.69357.1992-.13668.54235-.25736 1.25918-.44202.45074-.11778.8913-.23992.98872-.27627.20356-.07706.29807-.17012.34896-.33878.02908-.09597.11632-.66158.11632-.74882-.00145-.07125-.04943-.15995-.10614-.1963-.06979-.04362-.27772-.06834-.727-.09015-.52635-.02471-.85641.00873-1.04253.10324-.1294.06543-.22682.3257-.29516.79244l-.01745.11632-.37513.00436c-.23991.00146-.37368-.00145-.37368-.01163 0-.04798.09305-.53944.12359-.65431.17012-.63686.48127-.90876 1.15593-1.01054.31698-.04798 1.04107-.06543 1.38567-.0349.19484.01745.39549.06398.51908.11923.17158.07706.32421.22537.41151.40277.0451.0916.0465.09887.0509.32715.0101.40422-.0378.73864-.1527 1.08324-.10033.29953-.21665.47111-.40712.59906-.23119.15413-.36496.20356-1.15303.41876-1.15448.31407-1.22573.33879-1.35078.4362-.09451.07561-.14103.18467-.18465.43476-.01891.10905-.03781.21519-.04072.23846l-.00727.03925h1.40894c.77644 0 1.41038.00437 1.41038.00873 0 .01163-.10032.6136-.1105.6645l-.00873.0392h-1.7797c-1.68519 0-1.7797-.0014-1.7797-.0247z" fill="#e4eaf0"/><path d="m12.2843 10.3923c.0116-.0465.1701-.99308.1701-1.01344 0-.01163-.3359-.01599-1.204-.01599h-1.2054l.0626-.37368c.0596-.35187.0654-.37513.1047-.4173.0232-.02472.2806-.29953.5699-.61214.2908-.31116.8914-.95819 1.3363-1.4351l.8084-.8695h.4435.445l-.2487 1.49472-.2501 1.49327.3417.00436.3417.00291-.0087.06979c-.0102.07851-.0931.55979-.1047.61068l-.0073.03199h-.3417c-.1875 0-.3417.00291-.3417.00727 0 .01163-.1599.98146-.1686 1.02216l-.0058.032h-.3723-.3722zm.4623-2.74516c.0917-.55107.1629-1.00326.1571-1.00326s-.0233.01599-.0378.03489c-.0146.0189-.4217.45511-.9044.96982-.4828.51472-.8914.95093-.9074.96983l-.029.03199h.7764.7765z" fill="#e4eaf0"/><path d="m2 10.4112c0-.0073.1076-.66738.23991-1.46563.13232-.79825.3068-1.84659.38532-2.33077.07997-.48419.14976-.89713.15413-.91894l.00872-.04071h1.11378c.88986 0 1.15159.00436 1.29699.02181.52926.06252.7779.21956.87823.55689.04362.15121.04362.26463-.00436.59905-.08288.57433-.14686.91748-.1963 1.05851-.0567.15704-.14685.30098-.26463.42021-.10033.10324-.13668.12941-.25445.18321-.1425.06688-.23555.09596-.43766.13813-.10615.02181-.22974.02472-1.00764.02472h-.88695l-.06689.39985c-.03635.21955-.10178.61795-.1454.88258l-.07852.48419h-.36641c-.21229 0-.36787-.0058-.36787-.0131zm2.77718-2.48053c.07561-.01308.16431-.03635.19775-.05089.06834-.03344.14395-.10469.17448-.1643.03635-.06979.19484-.92039.19484-1.04398 0-.15267-.04943-.22246-.18466-.2559-.09015-.02327-.759-.04508-1.4104-.04653l-.33588-.00146-.00872.04072c-.00437.02181-.06107.35914-.12505.75026-.06543.39113-.12214.72992-.1265.75318l-.00727.04071h.74591c.60197 0 .77354-.00436.8855-.02181z" fill="#fff"/></g></svg>

<svg width="16" height="16" viewBox="0 0 16 16" fill="none" xmlns="http://www.w3.org/2000/svg">
<g clip-path="url(#clip0_788_23091)">
<path d="M0 8V3C0 1.34315 1.34315 0 3 0H8H13C14.6569 0 16 1.34315 16 3V8V13C16 14.6569 14.6569 16 13 16H8H3C1.34315 16 0 14.6569 0 13V8Z" fill="#E13134"/>
<path d="M6.08582 10.3996C6.08582 10.3851 6.10181 10.2789 6.12217 10.1655C6.2792 9.25822 6.28501 9.22623 6.32863 9.09392C6.42315 8.80166 6.60199 8.5472 6.81863 8.40035C7.01783 8.26367 7.36098 8.14299 8.07781 7.95833C8.52855 7.84055 8.96911 7.71841 9.06653 7.68206C9.27009 7.605 9.3646 7.51194 9.41549 7.34328C9.44457 7.24731 9.53181 6.6817 9.53181 6.59446C9.53036 6.52321 9.48238 6.43451 9.42567 6.39816C9.35588 6.35454 9.14795 6.32982 8.69867 6.30801C8.17232 6.2833 7.84226 6.31674 7.65614 6.41125C7.52674 6.47668 7.42932 6.73695 7.36098 7.20369L7.34353 7.32001L6.9684 7.32437C6.72849 7.32583 6.59472 7.32292 6.59472 7.31274C6.59472 7.26476 6.68777 6.7733 6.71831 6.65843C6.88843 6.02157 7.19958 5.74967 7.87424 5.64789C8.19122 5.59991 8.91531 5.58246 9.25991 5.61299C9.45475 5.63044 9.6554 5.67697 9.77899 5.73222C9.95057 5.80928 10.1032 5.95759 10.1905 6.13499C10.2356 6.22659 10.237 6.23386 10.2414 6.46214C10.2515 6.86636 10.2036 7.20078 10.0887 7.54538C9.98837 7.84491 9.87205 8.01649 9.68158 8.14444C9.45039 8.29857 9.31662 8.348 8.52855 8.5632C7.37407 8.87727 7.30282 8.90199 7.17777 8.9994C7.08326 9.07501 7.03674 9.18407 6.99312 9.43416C6.97421 9.54321 6.95531 9.64935 6.9524 9.67262L6.94513 9.71187H8.35407C9.13051 9.71187 9.76445 9.71624 9.76445 9.7206C9.76445 9.73223 9.66413 10.3342 9.65395 10.3851L9.64522 10.4243H7.86552C6.18033 10.4243 6.08582 10.4229 6.08582 10.3996Z" fill="#E4EAF0"/>
<path d="M12.2843 10.3923C12.2959 10.3458 12.4544 9.39922 12.4544 9.37886C12.4544 9.36723 12.1185 9.36287 11.2504 9.36287H10.045L10.1076 8.98919C10.1672 8.63732 10.173 8.61406 10.2123 8.57189C10.2355 8.54717 10.4929 8.27236 10.7822 7.95975C11.073 7.64859 11.6736 7.00156 12.1185 6.52465L12.9269 5.65515H13.3704H13.8154L13.5667 7.14987L13.3166 8.64314L13.6583 8.6475L14 8.65041L13.9913 8.7202C13.9811 8.79871 13.8982 9.27999 13.8866 9.33088L13.8793 9.36287H13.5376C13.3501 9.36287 13.1959 9.36578 13.1959 9.37014C13.1959 9.38177 13.036 10.3516 13.0273 10.3923L13.0215 10.4243H12.6492H12.277L12.2843 10.3923ZM12.7466 7.64714C12.8383 7.09607 12.9095 6.64388 12.9037 6.64388C12.8979 6.64388 12.8804 6.65987 12.8659 6.67877C12.8513 6.69767 12.4442 7.13388 11.9615 7.64859C11.4787 8.16331 11.0701 8.59952 11.0541 8.61842L11.0251 8.65041H11.8015H12.578L12.7466 7.64714Z" fill="#E4EAF0"/>
<path d="M2 10.4112C2 10.4039 2.1076 9.74382 2.23991 8.94557C2.37223 8.14732 2.54671 7.09898 2.62523 6.6148C2.7052 6.13061 2.77499 5.71767 2.77936 5.69586L2.78808 5.65515H3.90186C4.79172 5.65515 5.05345 5.65951 5.19885 5.67696C5.72811 5.73948 5.97675 5.89652 6.07708 6.23385C6.1207 6.38506 6.1207 6.49848 6.07272 6.8329C5.98984 7.40723 5.92586 7.75038 5.87642 7.89141C5.81972 8.04845 5.72957 8.19239 5.61179 8.31162C5.51146 8.41486 5.47511 8.44103 5.35734 8.49483C5.21484 8.56171 5.12179 8.59079 4.91968 8.63296C4.81353 8.65477 4.68994 8.65768 3.91204 8.65768H3.02509L2.9582 9.05753C2.92185 9.27708 2.85642 9.67548 2.8128 9.94011L2.73428 10.4243H2.36787C2.15558 10.4243 2 10.4185 2 10.4112ZM4.77718 7.93067C4.85279 7.91759 4.94149 7.89432 4.97493 7.87978C5.04327 7.84634 5.11888 7.77509 5.14941 7.71548C5.18576 7.64569 5.34425 6.79509 5.34425 6.6715C5.34425 6.51883 5.29482 6.44904 5.15959 6.4156C5.06944 6.39233 4.40059 6.37052 3.74919 6.36907L3.41331 6.36761L3.40459 6.40833C3.40022 6.43014 3.34352 6.76747 3.27954 7.15859C3.21411 7.54972 3.1574 7.88851 3.15304 7.91177L3.14577 7.95248H3.89168C4.49365 7.95248 4.66522 7.94812 4.77718 7.93067Z" fill="white"/>
</g>
<defs>
<clipPath id="clip0_788_23091">
<rect width="16" height="16" fill="white"/>
</clipPath>
</defs>
</svg>
